X: 60
T:Lasses of Melross,The. HSJJ.062
M:6/8
L:1/8
S:HSJ Jackson,Wyresdale,Lancs.1823
R:Jig
O:England
A:Lancashire
H:1823
Z:vmp.Chris Partington.
K:G
d|B>GB GAB|~c>Bc ABc|B>AB GAB|AFDD2c|BAB GAB|!cBc ABc|(B/c/dB) cAF|G3G2:
|
|:f|gbg gbg|ac'a ac'a|!gbg gbg|afd d2f|gbg gbg|ac'a abc'|bag ag^f|g3g2:|
